svg/fluentui-system-icons/ic_fluent_globe_shield_20_regular.svg

<svg width="20" height="20" viewBox="0 0 20 20" fill="none" xmlns="http://www.w3.org/2000/svg">
<path d="M10 18C10.4924 18 10.9745 17.9555 11.4424 17.8703C11.1649 17.5552 10.9066 17.1972 10.6875 16.7934C10.4536 16.9329 10.2215 17 10 17C9.34315 17 8.59323 16.4097 7.97822 15.0919C7.76073 14.6258 7.57172 14.0902 7.41936 13.5H10.0002L10.0001 12.5H7.20617C7.07345 11.7253 7 10.8833 7 10C7 9.11669 7.07345 8.27472 7.20617 7.5H12.7938C12.8899 8.06099 12.955 8.65725 12.9835 9.27892C13.3271 9.03778 13.6229 8.77137 13.8508 8.539C13.8761 8.51317 13.9022 8.4884 13.9289 8.46467C13.898 8.13574 13.8573 7.8137 13.8074 7.5H16.5404C16.7506 8.04953 16.8935 8.63233 16.959 9.23832C17.2692 9.46191 17.6206 9.66704 17.9977 9.80794C17.8957 5.47839 14.3541 2 10 2C5.58172 2 2 5.58172 2 10C2 14.4183 5.58172 18 10 18ZM10 3C10.6568 3 11.4068 3.59025 12.0218 4.90814C12.2393 5.37419 12.4283 5.90978 12.5806 6.5H7.41936C7.57172 5.90978 7.76073 5.37419 7.97822 4.90814C8.59323 3.59025 9.34315 3 10 3ZM7.07203 4.48526C6.79564 5.07753 6.56498 5.75696 6.38931 6.5H3.93648C4.77295 5.05399 6.11182 3.93497 7.71442 3.38163C7.47297 3.71222 7.25828 4.08617 7.07203 4.48526ZM6.19265 7.5C6.06723 8.28832 6 9.12934 6 10C6 10.8707 6.06723 11.7117 6.19265 12.5H3.45963C3.16268 11.7236 3 10.8808 3 10C3 9.1192 3.16268 8.2764 3.45963 7.5H6.19265ZM6.38931 13.5C6.56498 14.243 6.79564 14.9225 7.07203 15.5147C7.25828 15.9138 7.47297 16.2878 7.71442 16.6184C6.11182 16.065 4.77295 14.946 3.93648 13.5H6.38931ZM12.2856 3.38163C13.8882 3.93497 15.2271 5.05399 16.0635 6.5H13.6107C13.435 5.75696 13.2044 5.07753 12.928 4.48526C12.7417 4.08617 12.527 3.71222 12.2856 3.38163ZM18.5013 10.9647C17.1302 10.7717 16.0154 9.83093 15.4352 9.23931C15.204 9.00357 14.796 9.00354 14.5648 9.23926C13.9845 9.83085 12.8695 10.7716 11.4987 10.9647C11.2253 11.0032 11 11.2239 11.0001 11.5001L11.0004 14C11.0004 17.4685 14.1823 18.7273 14.8702 18.9589C14.9563 18.9879 15.0443 18.9879 15.1304 18.9589C15.8183 18.7273 19 17.4685 19 14V11.5C19 11.2239 18.7748 11.0032 18.5013 10.9647Z" fill="#212121"/>
</svg>

<svg xmlns="http://www.w3.org/2000/svg" width="20" height="20"><path d="M10 18c.492 0 .975-.044 1.442-.13a5.855 5.855 0 0 1-.755-1.077c-.233.14-.465.207-.687.207-.657 0-1.407-.59-2.022-1.908A9.254 9.254 0 0 1 7.42 13.5H10v-1H7.206A14.87 14.87 0 0 1 7 10c0-.883.073-1.725.206-2.5h5.588c.096.561.161 1.157.19 1.779a6.32 6.32 0 0 0 .867-.74c.025-.026.051-.05.078-.074-.031-.33-.072-.651-.122-.965h2.733c.21.55.354 1.132.419 1.738.31.224.662.429 1.039.57A8 8 0 1 0 10 18Zm0-15c.657 0 1.407.59 2.022 1.908.217.466.406 1.002.559 1.592H7.419c.153-.59.342-1.126.56-1.592C8.592 3.59 9.342 3 10 3ZM7.072 4.485A10.502 10.502 0 0 0 6.389 6.5H3.936a7.022 7.022 0 0 1 3.778-3.118c-.241.33-.456.704-.642 1.103ZM6.192 7.5A15.97 15.97 0 0 0 6 10c0 .87.067 1.712.193 2.5H3.46A6.984 6.984 0 0 1 3 10c0-.88.163-1.724.46-2.5h2.733Zm.197 6c.176.743.407 1.422.683 2.015.186.399.401.773.642 1.103A7.022 7.022 0 0 1 3.936 13.5H6.39Zm5.897-10.118A7.021 7.021 0 0 1 16.064 6.5H13.61a10.504 10.504 0 0 0-.683-2.015 6.635 6.635 0 0 0-.642-1.103Zm6.215 7.583c-1.37-.193-2.486-1.134-3.066-1.726a.624.624 0 0 0-.87 0c-.58.592-1.695 1.533-3.066 1.726-.274.038-.499.259-.499.535V14c0 3.468 3.182 4.727 3.87 4.959a.4.4 0 0 0 .26 0C15.818 18.727 19 17.469 19 14v-2.5c0-.276-.225-.497-.499-.535Z"/></svg>
